X:1
T:Charitas, 87.87 D
T:Charitas, 87.87 D
T:John Bacchus Dykes, 1868
T:Public Domain Courtesy of the Cyber Hymnal™
C:John Bacchus Dykes, 1868
Z:Public Domain
Z:Courtesy of the Cyber Hymnal™
%%score ( 1 2 ) ( 3 4 )
L:1/8
Q:1/4=110
M:none
K:F
V:1 treble 
V:2 treble 
V:3 bass 
V:4 bass 
V:1
 [FA]2 [FA]2 [FA]2 (GA) | [Fc]2 B2 [EA]2 [EG]2 | F2 [CG]2 C2 [FB]2 | [Fc]2 [Fd]2 [EG]4 | %4
 [GB]2 [GB]2 [GB]2 (AB) | [Gd]2 c2 [=FB]2 [FA]2 | [GB]2 [GB]2 [GB]2 c2 | A2 c2 [EG]4 | %8
 [_EG]2 [EG]2 [EB]2 _e2 | [_A_e]2 [Ad]2 [_Ec]2 [FB]2 | [GB]2 (Bc) [F_d]3 [Fd] | [F_A]2 [FB]2 c4 | %12
 [FA]2 [FA]2 [FA]2 (GA) | [Fc]2 [FB]2 [_E_e]2 [Fd]2 | [Ff]2 (ed) [Fc]2 [FA]2 | [FG]2 (AG) F4 |] %16
V:2
 x6 F2 | x2 (FD) x4 | x8 | x8 | x6 G2 | x2 (^FE) x4 | x6 (FE) | A2 (GF) x4 | x6 (FG) | x8 | %10
 x2 G2 x4 | x4 (F2 E2) | x6 F2 | x8 | x2 F2 x4 | x2 E2 F4 |] %16
V:3
 [F,C]2 C2 [A,C]2 [F,C]2 | [C,A,]2 [C,G,]2 [C,C]2 [C,B,]2 | [D,A,]2 [E,G,]2 [F,C]2 [D,B,]2 | %3
 [C,A,]2 [B,,G,]2 [C,C]4 | [G,D]2 D2 [B,D]2 [G,D]2 | [D,B,]2 [D,A,]2 [D,D]2 [D,C]2 | %6
 [G,B,]2 [F,D]2 [E,C]2 C2 | [F,C]2 [A,,C]2 [C,C]4 | [_E,B,]2 B,2 [G,B,]2 [E,B,]2 | %9
 [B,,B,]2 [B,,F,]2 [C,_A,]2 [D,A,]2 | [_E,G,]2 [E,_E]2 [_D,_A,]3 [D,A,] | %11
 [_D,_D]2 [D,B,]2 (B,2 C2) | [F,C]2 C2 [A,C]2 [F,C]2 | [_E,A,]2 [D,B,]2 (G,A,) [B,,B,]2 | %14
 [A,,C]2 [=B,,A,]2 [C,A,]2 [C,C]2 | (=B,G,) [C,_B,]2 [F,A,]4 |] %16
V:4
 x2 C2 x4 | x8 | x8 | x8 | x2 D2 x4 | x8 | x6 (D,C,) | x8 | x2 B,2 x4 | x8 | x8 | x4 C,4 | x8 | %13
 x4 C,2 x2 | x8 | C,2 x6 |] %16

